!!!!SEGMENT: pl-wtm--iii-41-976--001-012_kurpinski-karol-kazimierz--wesele-w-ojcowie-andante.krn
!!!cenid: 18xx:4264
!!!COM: Kurpiński, Karol Kazimierz
!!!COM-rismID: pe30018952
!!!CDT: 1785/03/06-1857/09/18
!!!CNT: Polish
!!!GTL: Wesele w Ojcowie
!!!OTL: Andante
!!!OMV: 012
!!!PDT:
!!!AGN:
!!!SMS-siglum: PL-Wtm
!!!SMS-shelfmark: III.41.976
!!!SMS-shelfwork: 001-012 G
!!!SMS-variant:
!!!SMS-altvar:
!!!NIFC-rismSourceID: 1001130735
!!!NIFC-rismChildID: 1001130735
!!!NIFC-islandoraID: pl-wtm:23143
!!!URL-pdf-islandora: https://repozytorium.nifc.pl/islandora/object/pl-wtm:23143/datastream/PDF/view
!!!URL-scan: https://polish.musicsources.pl/pl/lokalizacje/galeria/druki-muzyczne/17811/12 @EN{Scan on Polish Music Sources Website} @PL{Skany w portalu Dziedzictwo Muzyki Polskiej w otwartym dostępie}
!!!IIIF:
!!!ONB-nifc: UWAGA: skan 12
!!!AIN: 2 piano
!!!key: C
**kern	**kern	**dynam
*part2	*part1	*part1
*staff2	*staff1	*
*I"[Piano]	*I"[Piano]	*
*I'pf	*I'pf	*
*ICklav	*ICklav	*
*Ipiano	*Ipiano	*
*clefF4	*clefG2	*
*k[]	*k[]	*
*M4/4	*M4/4	*
*C:	*C:	*
*met(c)	*met(c)	*
!	!LO:TX:a:t=ANDANTE	!
16C\ 16E 16G 16c	16cc\ 16ee 16gg 16ccc	ff
=1	=1	=1
2C\ 2E 2G 2c	2cc\ 2ee 2gg 2ccc	.
4r	4r	.
8.r	8.r	.
16GG/ 16G	16g/	.
=2	=2	=2
!	!LO:TX:b:i:t=sempre marcato	!
!	!LO:TX:a:t=Pas de trois	!
8FF'^^</ 8F	8f'^^</	.
8r	8r	.
8EE'^^</ 8E	8e'^^</	.
8r	8r	.
8DD'^^</ 8D	8d'^^</	.
8r	8r	.
8CC'^^</ 8C	8c'^^</	.
8r	8r	.
!!LO:LB:g=original	!	!
=3	=3	=3
8BBB'^^</ 8BB	8B'^^</	.
8r	8r	.
8AAA'^^</ 8AA	8A'^^</	.
8r	8r	.
8GGG'^^</ 8GG	8G'^^</	.
8r	8r	.
8.r	8.r	.
16GG\ 16BB 16D 16G	16g\ 16b 16dd 16gg	ff
=4	=4	=4
2GG\ 2BB 2D 2G	2g\ 2b 2dd 2gg	.
4r	4r	.
8.r	8.r	.
16FF/ 16F	16f/	.
=5	=5	=5
8EE'^^</ 8E	8e'^^</	.
8r	8r	.
8DD'^^</ 8D	8d'^^</	.
8r	8r	.
8CC'^^</ 8C	8c'^^</	.
8r	8r	.
8BBB'^^</ 8BB	8B'^^</	.
8r	8r	.
!!LO:LB:g=original	!	!
=6	=6	=6
8CC'^^</ 8C	8c'^^</	.
8r	8r	.
8DD'^^</ 8D	8d'^^</	.
8r	8r	.
8EE'^^</ 8E	8e'^^</	.
8.r	8.r	.
(>16G\LL	(16gg\LL	.
16A\	16aa\	.
16B\JJ	16bb\JJ	.
=7	=7	=7
4.c\)	4.ccc\)	.
8D'\ 8A	8cc'\ 8ff#X	.
8D'\L 8A	8cc'\L 8ff#	.
8D'\ 8A	8cc'\ 8ff#	.
8D'\ 8A	8cc'\ 8ff#	.
8D'\J 8A	8cc'\J 8ff#	.
=8	=8	=8
2GG\ 2G	2b\ 2gg	.
4r	4r	p
8r	8r	.
(32D/LLL	(32d/LLL	.
32C/	32c/	.
32BB/	32B/	.
32AA/JJJ)	32A/JJJ)	.
=9	=9	=9
2.GG/	2.G/	.
4r	8r	.
.	8cc\	.
==	==	==
*-	*-	*-
!!!system-decoration: {(s1,s2)}
!!!RDF**kern: > = above
!!!RDF**kern: < = below
!!!ENC: Berenika Jozajtis
!!!END: 2022-11-27
!!!ENC: Natalia Wrzos
!!!END: 2022-12-08
!!!YEC: Copyright 2022 Narodowy Instytut Fryderyka Chopina (https://polishscores.org)
!!!YEM: License CC-BY-4.0 (https://creativecommons.org/licenses/by/4.0)
